X: 9331
T: Dancing At Kilbrew
R: jig
M: 6/8
K: Dmajor
|:G3 GED|GBd edB|~A3 ABA|ABA AGE|
G2G GED|GBd ~g3|b2g edB|DGB ABd:|
|:e2 e edB|egb ~a3|egd edB|DGB ABd|
e2 e edB|egb a2a|bag edB|DGB ABd:|

